packages/react/src/components/base/Icon/assets/icon-mosquito.svg

<svg width="24" height="24" viewBox="0 0 24 24" xmlns="http://www.w3.org/2000/svg" fill="currentColor"> <g clip-path="url(#clip0_2086_4180)"> <path d="M22.0962 2.29882L21.9715 2.17413C20.5597 0.77726 18.7119 0.110697 17.2662 0.476322C16.3147 0.717259 15.634 1.3632 15.349 2.29695L13.1937 9.37414L13.37 6.60288C13.3822 6.4032 13.3156 6.20726 13.1825 6.0582L11.7359 4.42507L11.8109 3.09663C11.8344 2.6832 11.5175 2.32882 11.104 2.30538C10.6915 2.28101 10.3362 2.59882 10.3128 3.01226L10.2209 4.64913C10.2097 4.84695 10.2772 5.04007 10.4084 5.1882L11.8531 6.81945L11.7059 9.13226L11.6384 9.06476C11.3628 8.78913 11.0178 8.60538 10.6428 8.53039C10.744 7.7982 10.5144 7.02851 9.9528 6.46695L9.78498 6.29913C9.32561 5.83976 8.71248 5.58663 8.05904 5.58663C7.66529 5.58663 7.28654 5.67945 6.94717 5.85288L2.33279 1.23757C2.04029 0.945072 1.56498 0.945072 1.27248 1.23757C0.979981 1.53007 0.979981 2.00538 1.27248 2.29788L5.88686 6.91226C5.41811 7.82913 5.56717 8.9832 6.33311 9.75007L6.50092 9.91788C6.97717 10.3941 7.60154 10.6313 8.22686 10.6313C8.25123 10.6313 8.27467 10.6304 8.29904 10.6294C8.32529 10.9248 8.41811 11.2041 8.56717 11.4544L6.54873 11.5829L4.91748 10.1382C4.76936 10.0069 4.57529 9.94038 4.37842 9.9507L2.74154 10.0426C2.32811 10.066 2.01123 10.4194 2.03467 10.8338C2.05811 11.2473 2.41154 11.5651 2.82592 11.5407L4.15436 11.4657L5.78748 12.9123C5.92529 13.0341 6.10248 13.1007 6.28436 13.1007C6.30029 13.1007 6.31623 13.1007 6.33217 13.0988L9.10342 12.9226L2.02623 15.0779C1.09248 15.3619 0.445606 16.0435 0.205606 16.9951C-0.160019 18.4407 0.506544 20.2876 1.90248 21.6994L1.96529 21.7623C1.96529 21.7623 1.96529 21.7623 1.96623 21.7632L2.02717 21.8241C3.18217 22.9669 4.62873 23.6204 5.90842 23.6204C6.19342 23.6204 6.46998 23.5885 6.73248 23.5219C7.68404 23.281 8.36467 22.6351 8.64967 21.7013L11.0028 13.9763L11.7134 14.6869C11.6431 14.7723 11.5906 14.8726 11.5634 14.9869L10.8865 17.8013C10.8303 18.0366 10.8903 18.2851 11.0497 18.4679L12.8553 20.5491V21.9591C12.8553 22.3735 13.1919 22.7091 13.6062 22.7091C14.0206 22.7091 14.3562 22.3726 14.3562 21.9591V20.2698C14.3562 20.0898 14.2897 19.9144 14.1715 19.7785L12.4353 17.7779L12.8947 15.8691L13.1272 16.1016C13.4965 16.471 13.9897 16.6754 14.5147 16.6754C15.0397 16.6754 15.5328 16.4719 15.9022 16.1016C16.6672 15.3366 16.6672 14.0916 15.9022 13.3266L15.8769 13.3013L17.5822 12.8916L19.5828 14.6279C19.7187 14.746 19.8931 14.8116 20.074 14.8116H21.7634C22.1778 14.8116 22.5134 14.476 22.5134 14.0616C22.5134 13.6473 22.1778 13.3116 21.7634 13.3116H20.3544L18.2731 11.5051C18.0903 11.3466 17.8419 11.2857 17.6065 11.3419L14.7922 12.0188C14.7406 12.031 14.6928 12.0488 14.6469 12.0704L13.9409 11.3644L21.9734 8.91851C22.9072 8.63445 23.554 7.95382 23.794 7.00132C24.1597 5.5557 23.4931 3.70882 22.0962 2.29601V2.29882ZM7.56217 8.85851L7.39436 8.6907C7.02779 8.32413 7.02779 7.72695 7.39436 7.35945C7.57811 7.1757 7.81905 7.08382 8.05998 7.08382C8.30092 7.08382 8.54186 7.1757 8.72561 7.35945L8.89342 7.52726C9.25998 7.89382 9.25998 8.49101 8.89342 8.85851C8.52686 9.22507 7.92967 9.22507 7.56217 8.85851ZM7.21529 21.2673C7.08592 21.691 6.80092 21.961 6.36592 22.0707C5.58967 22.2666 4.27342 21.9385 3.08373 20.761L3.02654 20.7038L2.97029 20.6476C1.79279 19.4579 1.46373 18.1416 1.66061 17.3654C1.77029 16.9304 2.04123 16.6444 2.46404 16.516L9.29655 14.4348L7.21529 21.2673ZM14.8419 15.0423C14.7556 15.1285 14.6394 15.1763 14.5147 15.1763C14.39 15.1763 14.2737 15.1285 14.1875 15.0423L9.92467 10.7794C9.74748 10.6023 9.74748 10.3032 9.92467 10.126C10.0109 10.0398 10.1272 9.99195 10.2519 9.99195C10.3765 9.99195 10.4928 10.0398 10.579 10.126L14.8419 14.3888C15.019 14.566 15.019 14.8651 14.8419 15.0423ZM22.34 6.63663C22.2303 7.07163 21.9594 7.35757 21.5365 7.48601L14.704 9.56726L16.7853 2.73476C16.9147 2.31101 17.1997 2.04101 17.6347 1.93132C17.7725 1.89663 17.9272 1.87788 18.095 1.87788C18.874 1.87788 19.939 2.27257 20.9187 3.24195L21.0303 3.35351C22.2078 4.54413 22.5369 5.85945 22.34 6.63663Z"/> </g> <defs> <clipPath id="clip0_2086_4180"> <rect width="24" height="24"/> </clipPath> </defs> </svg>

<svg viewBox="0 0 24 24" xmlns="http://www.w3.org/2000/svg" aria-hidden="true" fill="currentColor"><g clip-path="url(#a)"><path d="m22.096 2.299-.125-.125C20.56.777 18.712.111 17.267.476c-.951.241-1.632.887-1.917 1.82l-2.155 7.078.176-2.771a.75.75 0 0 0-.187-.545l-1.447-1.633.075-1.328a.75.75 0 0 0-1.498-.085L10.22 4.65a.75.75 0 0 0 .187.54l1.445 1.63-.147 2.313-.068-.067a1.94 1.94 0 0 0-.995-.535 2.44 2.44 0 0 0-.69-2.063l-.168-.168a2.42 2.42 0 0 0-1.726-.712c-.394 0-.772.092-1.112.266L2.333 1.238a.75.75 0 0 0-1.06 1.06l4.614 4.614c-.469.917-.32 2.071.446 2.838l.168.168a2.43 2.43 0 0 0 1.798.711c.026.296.12.575.268.825l-2.018.129-1.632-1.445a.75.75 0 0 0-.539-.187l-1.636.092a.75.75 0 1 0 .084 1.498l1.328-.075 1.633 1.446a.75.75 0 0 0 .497.189q.024 0 .048-.002l2.771-.176-7.077 2.155c-.934.284-1.58.966-1.82 1.917-.366 1.446.3 3.293 1.696 4.704l.063.063.001.001.061.061c1.155 1.143 2.602 1.796 3.881 1.796q.43 0 .824-.098c.952-.241 1.633-.887 1.918-1.82l2.353-7.726.71.71a.74.74 0 0 0-.15.3l-.677 2.815a.75.75 0 0 0 .164.667l1.805 2.081v1.41a.75.75 0 0 0 1.501 0v-1.69a.75.75 0 0 0-.184-.49l-1.737-2.001.46-1.909.232.233c.37.369.863.573 1.388.573s1.018-.203 1.387-.573a1.965 1.965 0 0 0 0-2.775l-.025-.026 1.705-.41 2 1.737a.75.75 0 0 0 .492.184h1.69a.75.75 0 1 0 0-1.5h-1.41l-2.08-1.807a.75.75 0 0 0-.668-.163l-2.814.677a.7.7 0 0 0-.145.051l-.706-.706 8.032-2.445c.934-.285 1.581-.965 1.821-1.918.366-1.445-.3-3.292-1.698-4.705zM7.562 8.859l-.168-.168a.943.943 0 0 1 .666-1.607c.24 0 .482.092.666.275l.167.168a.943.943 0 0 1 0 1.332.943.943 0 0 1-1.33 0m-.347 12.408q-.195.638-.85.804c-.775.196-2.092-.133-3.281-1.31l-.057-.057-.057-.056c-1.177-1.19-1.506-2.506-1.31-3.283.11-.435.381-.72.804-.849l6.833-2.081zm7.627-6.225a.46.46 0 0 1-.327.134.46.46 0 0 1-.328-.134L9.926 10.78a.46.46 0 0 1 .327-.787.46.46 0 0 1 .327.134l4.263 4.263a.47.47 0 0 1 0 .653m7.498-8.405q-.167.654-.803.849l-6.833 2.081 2.081-6.832q.196-.638.85-.804.207-.052.46-.053c.779 0 1.844.395 2.824 1.364l.111.112c1.178 1.19 1.507 2.505 1.31 3.283"/></g><defs><clipPath id="a"><path d="M0 0h24v24H0z"/></clipPath></defs></svg>
